X: 1
T: Smed Erik polska
O: efter R\"oj\aas Erik
R: Boda-polska
S: Boda 1988 tape B-2
Z: 2006 John Chambers <jc@trillian.mit.edu>
N: handwritten MS
M: 3/4
L: 1/16
K: D
|: A4 A3A B3c | ~c4 {c}d4 F3F | A4 A3G E3C \
|1,3 D4 D3E F3G :|2 {C}D4 D4- D3F :|4 {C}D4 D8 |]
|: [d3A3]g f4 d4- | d4 {ef}g4 e4- | e4 {f}g3~f e3d | c3B ABA^G A4 \
|  d3g f4 d4- | d4 {ef}g4 e4- | e3f gagf e3d | ~c4 {c}Hd7 A- :|
